svgs/thin/circle-3.svg

<svg xmlns="http://www.w3.org/2000/svg" viewBox="0 0 512 512"><!--! Font Awesome Pro 6.3.0 by @fontawesome - https://fontawesome.com License - https://fontawesome.com/license (Commercial License) Copyright 2023 Fonticons, Inc. --><path d="M280 240H221.3l111.1-97.97c2.516-2.219 3.391-5.719 2.219-8.844S331.3 128 328 128h-160C163.6 128 160 131.6 160 136S163.6 144 168 144h138.7L194.7 241.1c-2.516 2.219-3.391 5.719-2.219 8.844S196.7 256 200 256h80c30.88 0 56 25.12 56 56s-25.12 56-56 56H212.5c-16.78 0-31.59-10.69-36.89-26.59c-1.406-4.156-5.906-6.469-10.12-5.062c-4.188 1.406-6.453 5.938-5.062 10.12C167.9 368.9 188.8 384 212.5 384H280C319.7 384 352 351.7 352 312S319.7 240 280 240zM256 0C114.6 0 0 114.6 0 256s114.6 256 256 256s256-114.6 256-256S397.4 0 256 0zM256 496c-132.3 0-240-107.7-240-240S123.7 16 256 16s240 107.7 240 240S388.3 496 256 496z"/></svg>

<svg xmlns="http://www.w3.org/2000/svg" viewBox="0 0 512 512"><!-- Font Awesome Pro 6.0.0-alpha2 by @fontawesome - https://fontawesome.com License - https://fontawesome.com/license (Commercial License) --><path d="M280 240H221.297L333.266 142.031C335.781 139.813 336.656 136.313 335.484 133.188S331.328 128 328 128H168C163.578 128 160 131.594 160 136S163.578 144 168 144H306.703L194.734 241.969C192.219 244.187 191.344 247.687 192.516 250.812S196.672 256 200 256H280C310.875 256 336 281.125 336 312S310.875 368 280 368H212.484C195.703 368 180.891 357.312 175.594 341.406C174.188 337.25 169.688 334.938 165.469 336.344C161.281 337.75 159.016 342.281 160.406 346.469C167.875 368.906 188.812 384 212.484 384H280C319.703 384 352 351.688 352 312S319.703 240 280 240ZM256 16C123.451 16 16 123.451 16 256S123.451 496 256 496S496 388.549 496 256S388.549 16 256 16ZM256 480C132.486 480 32 379.514 32 256S132.486 32 256 32S480 132.486 480 256S379.514 480 256 480Z"/></svg>
